X: 28119
T: Mrs Capron's
R: reel
M: 4/4
K: Gmajor
|:G2FG EGDc|BGFG ECDF|G2FG EGDc|1 BGAF GDEF:|2 BGAF GFGA||
|:BDdD cDdB|cBAG FEDC|B,DGD EDEc|1 BGAF GFGA:|2 BGAF GDEF||

